!!!OTL: Um Frauen willen. / (Tagelied.)
!!!ARE: Europa, Mitteleuropa, Deutschland
!!!SCT: A0121
!!!TXO: @@NLD
!!!TXL: @@DE
!!!YEM: Copyright 1995, estate of Helmut Schaffrath.
**kern	**text
!! Mixed meters:  4/2; 6/2
*M6/2yy	*
*clefC4	*
*k[]	*
*G:mix	*
!LO:TX:a:t=Ick heb om vrouwen wille ghereden so menighen dagh.	!
!LO:TX:a:t=mixol.	!
2ryy	.
{2G	I._'Jch
=1	=1
*M4/2	*
2G	bin
2G	durch
2A	frew-
2B	-leins
=2	=2
*M6/2	*
1c	wil-
1c	-len
2r}	.
{2d	ge-
=3	=3
1e	-rit-
2e	-ten
1d	man-
2d	-chen
=4	=4
*lig	*
2.c	tag,
4d	.
4e	.
4c	.
1d}	.
*Xlig	*
{2G	So
=5	=5
2A	bitt
2d	ich
2d	euch,
1c	ed-
2d	-les
=6	=6
*lig	*
2.B	frew-
4A	.
*Xlig	*
1G	-lein,
2r}	.
{2d	wes
=7	=7
*lig	*
2c	habt
2A	.
*Xlig	*
2B	ir
1c	euch
2B-	be-
=8	=8
*lig	*
2B-	-dacht?
4A/	.
4G	.
*Xlig	*
1A	.
2r}	.
{2G	Habt
=9	=9
*lig	*
2A	ir
2d	.
*Xlig	*
2d	mich
*lig	*
2c	wil-
2c	-len
*Xlig	*
2d	ʒu
=10	=10
*lig	*
2.B	ne-
4A	.
*Xlig	*
1G	-men,
2r}	.
{2c	ſo_ver-
=11	=11
*lig	*
2A/	-hei-
2A/	-ßet
*Xlig	*
2G	mirs
1F	bei
2G	der
=12	=12
*M4/2	*
1A	ʒeit!
2r}	.
{2G	ich
=13	=13
*M6/2	*
1G	ſol
2B	und
*lig	*
2c	muß
2A	.
*Xlig	*
2A	von
=14	=14
*lig	*
4G	hin-
4F#i	.
4G	.
4A	.
2B	.
*Xlig	*
1A}	-nen,
{2B	ei
=15	=15
2c	ſchö-
2d	-nes
2e	mein
1d}	lieb!
{2d	mir
=16	=16
*lig	*
2d	gliebt
2B	.
*Xlig	*
2c	ein
1d	an-
2c	-der
=17	=17
*lig	*
2c	weib.'
4B	.
4A	.
1G/ll}	.
*Xlig	*
==	==
!!!GTL: Tage- oder Wächterlieder
!!!AGN: Romanze, Ballade, Lied
!! Souterliedekens 1540 ad Ps. 36.
!!!ONB: ESAC (Essen Associative Code) Database: ALTDEU
!!!AMT: irregular
!!!AIN: vox
!!!EED: Helmut Schaffrath
!!!EEV: 1.0
!!!RDF**kern: i = editorial accidental
!!!RDF**kern: l = terminal long
!!!AMD: Mixolydian
!!!URL-scan: https://rosdok.uni-rostock.de/mcrviewer/recordIdentifier/rosdok_ppn738218359/iview2/phys_0293.iview2?x=-425.8853427895981&y=706.9905437342823&scale=0.4823261117445838&rotation=0&layout=singlePageLayout&logicalDiv=log_0008
!!!ENC: Anna Maria Matuszewska
!!!EEV: 2024/23/02
*-	*-
